svg/UnitedNationsOCHA-Humanitarian/telecommunications_fax_icon.svg

<svg xmlns="http://www.w3.org/2000/svg" viewBox="0 0 32 32" enable-background="new 0 0 32 32"><path fill="#407cca" d="m26.1 9.352h-3.738l-4.83-4.455h-10.291v4.455h-1.341c-1.05 0-1.9 2.177-1.9 4.876 0 2.697.85 4.876 1.9 4.876h1.341v7.997h17.519v-7.997h1.34c1.054 0 1.9-2.18 1.9-4.876 0-2.7-.847-4.876-1.9-4.876m-5.3 0h-3.118v-2.882l3.118 2.882m-12.497-3.397h8.319v3.397h-8.319v-3.397m15.394 20.09h-15.394v-6.938h15.394v6.938"/></svg>

<?xml version="1.0" encoding="utf-8"?>
<!-- Generator: Adobe Illustrator 16.0.3, SVG Export Plug-In . SVG Version: 6.00 Build 0)  -->
<!DOCTYPE svg PUBLIC "-//W3C//DTD SVG 1.1//EN" "http://www.w3.org/Graphics/SVG/1.1/DTD/svg11.dtd">
<svg version="1.1" id="Layer_1" xmlns="http://www.w3.org/2000/svg" xmlns:xlink="http://www.w3.org/1999/xlink" x="0px" y="0px"
	 width="32px" height="32px" viewBox="0 0 32 32" enable-background="new 0 0 32 32" xml:space="preserve">
<path fill="#407CCA" d="M26.1,9.352h-3.738l-4.83-4.455H7.241v4.455H5.9c-1.05,0-1.9,2.177-1.9,4.876c0,2.697,0.85,4.876,1.9,4.876
	h1.341v7.997H24.76v-7.997h1.34c1.054,0,1.9-2.18,1.9-4.876C28,11.528,27.153,9.352,26.1,9.352z M20.8,9.352h-3.118V6.47L20.8,9.352
	z M8.303,5.955h8.319v3.397H8.303V5.955z M23.697,26.042H8.303v-6.938h15.394V26.042z"/>
</svg>
